app/webpacker/src/images/symphony/symphony-logo.svg

<?xml version="1.0" encoding="UTF-8"?>
<svg width="143px" height="24px" viewBox="0 0 143 24" version="1.1" xmlns="http://www.w3.org/2000/svg" xmlns:xlink="http://www.w3.org/1999/xlink">
    <title>App Bar: Top/Symphony Logo</title>
    <g id="App-Bar:-Top/Symphony-Logo" stroke="none" stroke-width="1" fill="none" fill-rule="evenodd">
        <g id="Symphony-4" fill="#475AD4" fill-rule="nonzero">
            <path d="M44.205017,19.282011 C44.9268991,19.282011 45.6175459,19.2023767 46.2769575,19.0431083 C46.9363691,18.8838398 47.5194275,18.6310876 48.0261335,18.2848519 C48.5328389,17.938616 48.9354274,17.4850471 49.2338976,16.9241451 C49.5323684,16.3632431 49.6816036,15.6880832 49.6816036,14.8986656 C49.6816036,14.2200433 49.5705447,13.6487542 49.3484271,13.1847983 C49.1263094,12.7208422 48.810486,12.3226711 48.4009569,11.9902847 C47.9914279,11.6578983 47.4916631,11.3809097 46.9016632,11.1593187 C46.3116634,10.9377278 45.6557224,10.7299863 44.9338403,10.5360943 C44.3785464,10.3975999 43.8891936,10.2660303 43.4657819,10.1413854 C43.0423703,10.0167406 42.691841,9.8782462 42.414194,9.72590247 C42.136547,9.57355869 41.9248412,9.39697846 41.7790766,9.19616166 C41.6333119,8.99534487 41.5604296,8.74259272 41.5604296,8.43790521 C41.5604296,7.9116268 41.7547824,7.50306852 42.1434882,7.21223044 C42.532194,6.92139236 43.1221938,6.77597332 43.9134876,6.77597332 C44.3577228,6.77597332 44.7950168,6.83137101 45.2253696,6.94216652 C45.6557224,7.05296198 46.05484,7.18799393 46.4227222,7.3472624 C46.7906044,7.50653086 47.1029573,7.66926173 47.3597805,7.83545488 C47.6166045,8.00164809 47.793604,8.1332177 47.8907803,8.23016373 L47.8907803,8.23016373 L49.1610156,5.90345907 C48.5085452,5.4602772 47.7450158,5.07595544 46.870428,4.75049376 C45.99584,4.42503209 45.0379579,4.26230128 43.9967818,4.26230128 C43.2471349,4.26230128 42.5460763,4.36270965 41.8936059,4.56352645 C41.2411355,4.76434325 40.6684887,5.05864367 40.1756653,5.44642778 C39.6828419,5.83421189 39.2976067,6.31894203 39.0199598,6.90061819 C38.7423127,7.48229436 38.6034893,8.14706713 38.6034893,8.8949365 C38.6034893,9.46276324 38.690254,9.95095572 38.8637833,10.359514 C39.0373127,10.7680723 39.2976067,11.1281575 39.6446654,11.4397698 C39.9917241,11.751382 40.4255475,12.0214459 40.9461356,12.2499616 C41.4667237,12.4784772 42.0810176,12.6896811 42.7890174,12.8835731 C43.372076,13.0497663 43.8996053,13.20211 44.3716052,13.3406044 C44.843605,13.4790987 45.2461932,13.6314425 45.5793695,13.7976356 C45.9125459,13.9638288 46.1693693,14.1577209 46.3498399,14.3793119 C46.5303104,14.6009028 46.6205456,14.8709667 46.6205456,15.1895037 C46.6205456,16.2005122 45.8292518,16.7060165 44.246664,16.7060165 C43.6774877,16.7060165 43.1221938,16.6367693 42.5807822,16.498275 C42.0393706,16.3597807 41.5465472,16.1901251 41.1023121,15.9893084 C40.6580769,15.7884916 40.2728417,15.5876749 39.9466065,15.3868581 C39.6203714,15.1860413 39.3947832,15.0233105 39.269842,14.8986656 L39.269842,14.8986656 L37.9996071,17.3707893 C38.8603127,17.9801643 39.8320771,18.451045 40.9149003,18.7834314 C41.9977235,19.1158178 43.0944291,19.282011 44.205017,19.282011 Z M52.8554113,23.9309688 C53.795002,23.9309688 54.5826004,23.6881017 55.2182059,23.2023676 C55.8538114,22.7166336 56.3028805,22.0921184 56.5654131,21.328822 L56.5654131,21.328822 L61.1251919,8.2556368 L58.5136822,8.2556368 L55.9021725,16.7490438 L52.9590425,8.2556368 L50.0988177,8.2556368 L54.3891549,19.1638359 C54.2509801,19.6218137 54.1197138,20.0034619 53.995356,20.3087805 C53.8709981,20.614099 53.7466409,20.8534966 53.6222831,21.026973 C53.4979258,21.2004494 53.3597505,21.3218829 53.2077576,21.3912735 C53.0557652,21.4606641 52.8899548,21.4953594 52.7103274,21.4953594 C52.5583345,21.4953594 52.3717981,21.4780117 52.1507181,21.4433165 C51.9296381,21.4086212 51.701649,21.3565782 51.4667515,21.2871876 L51.4667515,21.2871876 L51.4667515,23.7019799 C51.7154665,23.7852485 51.9538186,23.8442305 52.1818077,23.8789258 C52.4097967,23.9136211 52.6343313,23.9309688 52.8554113,23.9309688 Z M65.5307624,19.1628069 L65.5307624,12.8324683 C65.7394428,12.1566805 66.0907216,11.6119128 66.5845983,11.1981652 C67.078475,10.7844175 67.5966973,10.5775437 68.1392664,10.5775437 C68.6679232,10.5775437 69.0818056,10.7775218 69.3809142,11.1774778 C69.6800228,11.5774338 69.8295768,12.2118469 69.8295768,13.0807169 L69.8295768,13.0807169 L69.8295768,19.1628069 L72.6258927,19.1628069 L72.6258927,12.8531557 C72.8345731,12.1773679 73.1823735,11.6291523 73.669294,11.2085089 C74.1562151,10.7878654 74.6779158,10.5775437 75.2343967,10.5775437 C75.7630535,10.5775437 76.1769359,10.7775218 76.4760445,11.1774778 C76.7751525,11.5774338 76.924707,12.2118469 76.924707,13.0807169 L76.924707,13.0807169 L76.924707,19.1628069 L79.721023,19.1628069 L79.721023,12.3980333 C79.721023,11.8739529 79.6758089,11.3567684 79.5853807,10.8464797 C79.4949525,10.3361909 79.3314862,9.88106859 79.0949818,9.48111256 C78.858478,9.08115652 78.5245892,8.75705419 78.0933167,8.50880563 C77.6620443,8.26055707 77.112519,8.13643275 76.4447421,8.13643275 C75.5682848,8.13643275 74.7892119,8.33296286 74.1075227,8.72602311 C73.4258341,9.11908337 72.8623971,9.68798635 72.4172123,10.4327321 C72.2780922,9.78452744 71.9581158,9.23975977 71.457283,8.79842896 C70.9564502,8.35709816 70.2469376,8.13643275 69.328744,8.13643275 C68.4244627,8.13643275 67.6210435,8.32606708 66.9184864,8.70533573 C66.2159294,9.08460438 65.6629269,9.62592419 65.2594779,10.3292952 L65.2594779,10.3292952 L65.2594779,8.32261916 L62.7344465,8.32261916 L62.7344465,19.1628069 L65.5307624,19.1628069 Z M84.7510826,23.6925607 L84.7510826,17.3324816 C85.1087675,17.9858667 85.6040245,18.5037092 86.236852,18.8860091 C86.86968,19.2683089 87.612565,19.4594588 88.4655069,19.4594588 C89.1533631,19.4594588 89.7861911,19.3134898 90.3639904,19.0215518 C90.9417897,18.7296137 91.4404858,18.3264611 91.8600781,17.8120941 C92.2796704,17.297727 92.6064021,16.6929982 92.8402733,15.9979076 C93.0741445,15.3028169 93.1910801,14.55907 93.1910801,13.7666667 C93.1910801,13.0020671 93.0638268,12.2756973 92.8093196,11.5875576 C92.554813,10.899418 92.2040062,10.30164 91.7568992,9.79422386 C91.3097929,9.2868077 90.7767041,8.88365515 90.1576333,8.5847662 C89.5385626,8.28587726 88.8644638,8.13643275 88.1353355,8.13643275 C87.3099083,8.13643275 86.5807801,8.32063179 85.9479526,8.68902981 C85.3151246,9.05742782 84.7992321,9.56136853 84.4002758,10.2008519 L84.4002758,10.2008519 L84.4002758,8.32410725 L81.9858998,8.32410725 L81.9858998,23.6925607 L84.7510826,23.6925607 Z M87.686658,17.1363382 C87.0836256,17.1363382 86.5226657,16.9298125 86.0037771,16.516761 C85.484889,16.1037095 85.0992288,15.5821445 84.8467969,14.952066 L84.8467969,14.952066 L84.8467969,12.368744 C84.944965,12.1027109 85.0887108,11.8576803 85.2780348,11.6336524 C85.4673589,11.4096244 85.6812252,11.2136 85.9196333,11.0455791 C86.1580414,10.8775581 86.4174854,10.748042 86.6979654,10.6570307 C86.978446,10.5660193 87.2519137,10.5205137 87.5183699,10.5205137 C87.9531143,10.5205137 88.3563041,10.6045241 88.7279405,10.772545 C89.0995764,10.940566 89.4221289,11.1715948 89.6955967,11.4656315 C89.9690651,11.7596681 90.1829308,12.1062113 90.3371952,12.505261 C90.4914589,12.9043107 90.5685911,13.3348644 90.5685911,13.796922 C90.5685911,14.2309761 90.4984711,14.6510284 90.3582311,15.0570791 C90.2179911,15.4631296 90.0216549,15.8201741 89.769223,16.1282125 C89.5167906,16.4362509 89.2117683,16.6812814 88.8541562,16.8633042 C88.496544,17.0453268 88.107378,17.1363382 87.686658,17.1363382 Z M98.0651058,19.1032049 L98.0651058,12.7573041 C98.1621987,12.4254923 98.3147733,12.1213314 98.5228297,11.8448216 C98.730886,11.5683118 98.9597483,11.329822 99.2094158,11.1293524 C99.4590833,10.9288828 99.7226214,10.773346 100.00003,10.662742 C100.277438,10.5521381 100.540976,10.4968362 100.790644,10.4968362 C101.373202,10.4968362 101.82399,10.7007622 102.14301,11.1086141 C102.46203,11.5164662 102.62154,12.1489824 102.62154,13.006163 L102.62154,13.006163 L102.62154,19.1032049 L105.409495,19.1032049 L105.409495,12.3218011 C105.409495,11.7826069 105.360948,11.2572382 105.263855,10.745695 C105.166762,10.2341518 104.993382,9.77791054 104.743714,9.37697131 C104.494047,8.97603202 104.147286,8.65458932 103.703433,8.41264325 C103.259579,8.17069712 102.683957,8.04972403 101.976565,8.04972403 C101.14434,8.04972403 100.384934,8.23982456 99.6983478,8.62002563 C99.0117623,9.00022663 98.4673479,9.54287718 98.0651058,10.2479773 L98.0651058,10.2479773 L98.0651058,3.96429117 L95.2771509,3.96429117 L95.2771509,19.1032049 L98.0651058,19.1032049 Z M112.810459,19.401215 C113.690557,19.401215 114.48127,19.2498866 115.182598,18.9472298 C115.883926,18.644573 116.475242,18.2352985 116.956545,17.7194062 C117.437849,17.2035139 117.80914,16.6085182 118.070419,15.9344189 C118.331698,15.2603197 118.462338,14.5518276 118.462338,13.8089427 C118.462338,13.0523007 118.331698,12.3369301 118.070419,11.6628309 C117.80914,10.9887317 117.434411,10.3937359 116.946231,9.87784359 C116.458052,9.36195131 115.866736,8.95267679 115.172285,8.65001999 C114.477832,8.34736318 113.690557,8.19603478 112.810459,8.19603478 C111.930361,8.19603478 111.139649,8.34736318 110.438321,8.65001999 C109.736993,8.95267679 109.142239,9.36195131 108.65406,9.87784359 C108.16588,10.3937359 107.791151,10.9887317 107.529872,11.6628309 C107.268593,12.3369301 107.137953,13.0523007 107.137953,13.8089427 C107.137953,14.5518276 107.268593,15.2603197 107.529872,15.9344189 C107.791151,16.6085182 108.16588,17.2035139 108.65406,17.7194062 C109.142239,18.2352985 109.736993,18.644573 110.438321,18.9472298 C111.139649,19.2498866 111.930361,19.401215 112.810459,19.401215 Z M112.859748,17.1363382 C112.45602,17.1363382 112.080136,17.0558281 111.732095,16.8948081 C111.384054,16.733788 111.081258,16.5062596 110.823708,16.212223 C110.566157,15.9181864 110.364294,15.5716432 110.218116,15.1725934 C110.071939,14.7735437 109.99885,14.3289883 109.99885,13.8389272 C109.99885,13.3628679 110.071939,12.9218129 110.218116,12.5157623 C110.364294,12.1097117 110.566157,11.7596681 110.823708,11.4656315 C111.081258,11.1715948 111.384054,10.940566 111.732095,10.772545 C112.080136,10.6045241 112.45602,10.5205137 112.859748,10.5205137 C113.263475,10.5205137 113.639359,10.6010237 113.987401,10.7620438 C114.335441,10.9230638 114.638237,11.1505922 114.895787,11.4446288 C115.153338,11.7386655 115.355201,12.0887091 115.501379,12.4947597 C115.647556,12.9008103 115.720645,13.3418653 115.720645,13.8179246 C115.720645,14.3079857 115.647556,14.7560415 115.501379,15.1620921 C115.355201,15.5681427 115.153338,15.9181864 114.895787,16.212223 C114.638237,16.5062596 114.335441,16.733788 113.987401,16.8948081 C113.639359,17.0558281 113.263475,17.1363382 112.859748,17.1363382 Z M123.217159,19.1628069 L123.217159,12.8324683 C123.314252,12.5014702 123.466827,12.1980553 123.674883,11.9222235 C123.88294,11.6463918 124.115269,11.4084869 124.371872,11.2085089 C124.628475,11.0085308 124.902415,10.8533755 125.193695,10.7430428 C125.484973,10.6327101 125.769317,10.5775437 126.046725,10.5775437 C126.587672,10.5775437 127.01072,10.7775218 127.315869,11.1774778 C127.621019,11.5774338 127.773593,12.2118469 127.773593,13.0807169 L127.773593,13.0807169 L127.773593,19.1628069 L130.561548,19.1628069 L130.561548,12.3980333 C130.561548,11.8739529 130.516469,11.3567684 130.426312,10.8464797 C130.336154,10.3361909 130.173177,9.88106859 129.937379,9.48111256 C129.701582,9.08115652 129.368692,8.75705419 128.938709,8.50880563 C128.508726,8.26055707 127.953909,8.13643275 127.274258,8.13643275 C126.317199,8.13643275 125.457233,8.329515 124.694359,8.71567942 C123.931486,9.10184391 123.348929,9.6397158 122.946686,10.3292952 L122.946686,10.3292952 L122.946686,8.32261916 L120.429204,8.32261916 L120.429204,19.1628069 L123.217159,19.1628069 Z M134.390978,23.9309688 C135.330569,23.9309688 136.118167,23.6881017 136.753773,23.2023676 C137.389378,22.7166336 137.838447,22.0921184 138.10098,21.328822 L138.10098,21.328822 L142.660759,8.2556368 L140.049249,8.2556368 L137.437739,16.7490438 L134.494609,8.2556368 L131.634385,8.2556368 L135.924722,19.1638359 C135.786547,19.6218137 135.655281,20.0034619 135.530923,20.3087805 C135.406565,20.614099 135.282208,20.8534966 135.15785,21.026973 C135.033493,21.2004494 134.895317,21.3218829 134.743325,21.3912735 C134.591332,21.4606641 134.425522,21.4953594 134.245894,21.4953594 C134.093901,21.4953594 133.907365,21.4780117 133.686285,21.4433165 C133.465205,21.4086212 133.237216,21.3565782 133.002318,21.2871876 L133.002318,21.2871876 L133.002318,23.7019799 C133.251034,23.7852485 133.489386,23.8442305 133.717375,23.8789258 C133.945364,23.9136211 134.169898,23.9309688 134.390978,23.9309688 Z" id="Symphony"></path>
            <path d="M25.3341773,16.2423078 C25.9102298,16.2423078 26.3772127,16.7092907 26.3772127,17.2853432 L26.3772127,17.7621594 C26.3772127,18.3382119 25.9102298,18.8051948 25.3341773,18.8051948 L13.7186967,18.8051948 L8.42391582,22.4205592 C7.84582132,22.8159745 7.27379413,23.0285101 6.7865625,23.0366929 L6.75743099,23.0369384 C5.80703711,23.0369384 5.21849467,22.2754961 5.21849467,20.9999414 L5.21849467,20.9999414 L5.21849467,18.8051948 L13.7186967,18.8051948 L17.4721937,16.2423078 L25.3341773,16.2423078 Z M6.76040156,0.149761723 C7.2531434,0.149761723 7.84595602,0.362632075 8.4343128,0.764844047 L8.4343128,0.764844047 L13.9029862,4.50070937 L10.1952636,4.50070937 C9.62575706,4.50070937 9.1628555,4.95713928 9.15240852,5.52414941 L9.15222816,5.54374477 L9.15222816,6.02056095 C9.15222816,6.59661349 9.61921102,7.06359635 10.1952636,7.06359635 L10.1952636,7.06359635 L17.6545759,7.06359635 L13.9029862,4.50070937 L25.3341773,4.50070937 C25.9102298,4.50070937 26.3772127,4.96769224 26.3772127,5.54374477 L26.3772127,6.02056095 C26.3772127,6.59661349 25.9102298,7.06359635 25.3341773,7.06359635 L17.6545759,7.06359635 L21.1743069,9.46807384 C21.9850374,10.0217506 22.4327978,10.7645739 22.4432906,11.5630924 L22.4434792,11.5923311 C22.4434792,12.4024983 21.9895403,13.1569005 21.169851,13.7175147 L21.169851,13.7175147 L17.4721937,16.2423078 L5.21849467,16.2423078 L5.21849467,18.8051948 L1.13575612,18.8051948 C0.559703585,18.8051948 0.0927207247,18.3382119 0.0927207247,17.7621594 L0.0927207247,17.2853432 C0.0927207247,16.7092907 0.559703585,16.2423078 1.13575612,16.2423078 L5.21849467,16.2423078 L5.21849467,12.9045946 L16.2746699,12.9045946 C16.8441764,12.9045946 17.3070779,12.4481647 17.3175249,11.8811545 L17.3177053,11.8615592 L17.3177053,11.384743 C17.3177053,10.8086905 16.8507224,10.3417076 16.2746699,10.3417076 L16.2746699,10.3417076 L5.21849467,10.3417076 L5.21849467,12.9045946 L1.13575612,12.9045946 C0.559703585,12.9045946 0.0927207247,12.4376117 0.0927207247,11.8615592 L0.0927207247,11.384743 C0.0927207247,10.8086905 0.559703585,10.3417076 1.13575612,10.3417076 L5.21849467,10.3417076 L5.21849467,2.18972308 C5.21849467,0.925456538 5.79605299,0.165071635 6.73193212,0.149990356 L6.76040156,0.149761723 Z" id="Combined-Shape-Copy"></path>
        </g>
    </g>
</svg>

<svg xmlns="http://www.w3.org/2000/svg" width="143" height="24" viewBox="0 0 143 24">
    <defs>
        <filter id="prefix__a" width="101.8%" height="128.1%" x="-.9%" y="-14%" filterUnits="objectBoundingBox">
            <feOffset in="SourceAlpha" result="shadowOffsetOuter1"/>
            <feGaussianBlur in="shadowOffsetOuter1" result="shadowBlurOuter1" stdDeviation="2"/>
            <feColorMatrix in="shadowBlurOuter1" result="shadowMatrixOuter1" values="0 0 0 0 0 0 0 0 0 0 0 0 0 0 0 0 0 0 0.2 0"/>
            <feMerge>
                <feMergeNode in="shadowMatrixOuter1"/>
                <feMergeNode in="SourceGraphic"/>
            </feMerge>
        </filter>
    </defs>
    <g fill="#475AD4" filter="url(#prefix__a)" transform="translate(-25 -16)">
        <g>
            <path d="M44.205 19.282c.722 0 1.413-.08 2.072-.239.66-.16 1.242-.412 1.75-.758.506-.346.908-.8 1.207-1.36.298-.562.448-1.237.448-2.026 0-.679-.111-1.25-.334-1.714-.222-.464-.538-.862-.947-1.195-.41-.332-.91-.61-1.5-.83-.59-.222-1.245-.43-1.967-.624-.555-.138-1.045-.27-1.468-.395-.424-.124-.774-.263-1.052-.415-.277-.152-.49-.329-.635-.53-.146-.2-.219-.453-.219-.758 0-.526.195-.935.583-1.226.39-.29.98-.436 1.77-.436.445 0 .882.055 1.312.166.43.111.83.246 1.198.405.368.16.68.322.937.488.257.167.434.298.53.395l1.271-2.327c-.652-.443-1.416-.827-2.29-1.153-.875-.325-1.833-.488-2.874-.488-.75 0-1.45.1-2.103.302-.653.2-1.226.495-1.718.882-.493.388-.878.873-1.156 1.455-.278.581-.417 1.246-.417 1.994 0 .568.087 1.056.26 1.465.174.408.435.768.782 1.08.347.311.78.581 1.301.81.52.228 1.135.44 1.843.634.583.166 1.11.318 1.583.457.472.138.874.29 1.207.457.334.166.59.36.77.581.181.222.272.492.272.81 0 1.012-.792 1.517-2.374 1.517-.57 0-1.125-.07-1.666-.208-.542-.138-1.034-.308-1.479-.509-.444-.2-.83-.401-1.155-.602-.327-.201-.552-.364-.677-.488L38 17.37c.86.61 1.832 1.08 2.915 1.412 1.083.333 2.18.499 3.29.499zm8.65 4.649c.94 0 1.728-.243 2.363-.729.636-.485 1.085-1.11 1.347-1.873l4.56-13.073h-2.611l-2.612 8.493-2.943-8.493h-2.86l4.29 10.908c-.138.458-.27.84-.394 1.145-.124.305-.248.544-.373.718-.124.173-.262.295-.414.364-.152.07-.318.104-.498.104-.152 0-.338-.017-.56-.052-.22-.034-.448-.086-.683-.156v2.415c.248.083.487.142.715.177.228.035.452.052.673.052zm12.676-4.768v-6.33c.208-.676.56-1.221 1.054-1.635.493-.414 1.012-.62 1.554-.62.529 0 .943.2 1.242.6.299.4.449 1.034.449 1.903v6.082h2.796v-6.31c.209-.676.556-1.224 1.043-1.644.487-.421 1.009-.631 1.565-.631.53 0 .943.2 1.242.6.3.4.449 1.034.449 1.903v6.082h2.796v-6.765c0-.524-.045-1.041-.136-1.552-.09-.51-.254-.965-.49-1.365-.237-.4-.57-.724-1.002-.972-.431-.248-.98-.373-1.648-.373-.877 0-1.656.197-2.337.59-.682.393-1.246.962-1.69 1.707-.14-.648-.46-1.193-.96-1.635-.502-.44-1.211-.662-2.13-.662-.904 0-1.707.19-2.41.57-.702.379-1.255.92-1.659 1.623V8.323h-2.525v10.84h2.797zm19.22 4.53v-6.36c.358.653.853 1.17 1.486 1.553.633.382 1.376.573 2.229.573.687 0 1.32-.146 1.898-.437.578-.292 1.076-.696 1.496-1.21.42-.514.746-1.119.98-1.814.234-.695.351-1.439.351-2.231 0-.765-.127-1.491-.382-2.18-.254-.688-.605-1.285-1.052-1.793-.447-.507-.98-.91-1.6-1.21-.618-.298-1.293-.448-2.022-.448-.825 0-1.554.185-2.187.553-.633.368-1.149.872-1.548 1.512V8.324h-2.414v15.369h2.765zm2.936-6.557c-.603 0-1.164-.206-1.683-.62-.52-.412-.905-.934-1.157-1.564V12.37c.098-.266.242-.511.431-.735.19-.224.403-.42.642-.588.238-.168.497-.298.778-.389.28-.091.554-.136.82-.136.435 0 .838.084 1.21.252.372.168.694.399.968.693.273.294.487.64.641 1.04.154.398.232.829.232 1.29 0 .435-.07.855-.21 1.261-.141.406-.337.763-.59 1.071-.252.308-.557.553-.915.735-.357.182-.747.273-1.167.273zm10.378 1.967v-6.346c.097-.332.25-.636.458-.912.208-.277.437-.515.686-.716.25-.2.514-.356.791-.466.277-.11.541-.166.79-.166.583 0 1.034.204 1.353.612.319.407.479 1.04.479 1.897v6.097h2.787v-6.781c0-.54-.048-1.065-.145-1.576-.097-.512-.27-.968-.52-1.369s-.597-.722-1.04-.964c-.444-.242-1.02-.363-1.727-.363-.833 0-1.592.19-2.279.57-.686.38-1.23.923-1.633 1.628V3.964h-2.788v15.14h2.788zm14.745.298c.88 0 1.671-.151 2.373-.454.7-.302 1.292-.712 1.774-1.228.48-.515.852-1.11 1.113-1.785.262-.674.392-1.382.392-2.125 0-.757-.13-1.472-.392-2.146-.26-.674-.636-1.27-1.124-1.785-.488-.516-1.08-.925-1.774-1.228-.694-.303-1.481-.454-2.362-.454-.88 0-1.67.151-2.372.454-.701.303-1.296.712-1.784 1.228s-.863 1.11-1.124 1.785c-.261.674-.392 1.39-.392 2.146 0 .743.13 1.451.392 2.125.261.675.636 1.27 1.124 1.785.488.516 1.083.926 1.784 1.228.702.303 1.492.454 2.372.454zm.05-2.265c-.404 0-.78-.08-1.128-.241-.348-.161-.65-.389-.908-.683-.258-.294-.46-.64-.606-1.04-.146-.398-.22-.843-.22-1.333 0-.476.074-.917.22-1.323.146-.406.348-.756.606-1.05.257-.294.56-.525.908-.693.348-.168.724-.252 1.128-.252.403 0 .78.08 1.127.241.348.161.651.389.909.683.257.294.46.644.605 1.05.147.406.22.847.22 1.323 0 .49-.073.938-.22 1.344-.146.406-.348.756-.605 1.05-.258.294-.56.522-.909.683-.348.16-.724.241-1.127.241zm10.357 2.027v-6.33c.097-.332.25-.635.458-.91.208-.277.44-.515.697-.714.256-.2.53-.356.822-.466.291-.11.575-.165.853-.165.54 0 .964.2 1.269.6.305.4.458 1.034.458 1.903v6.082h2.788v-6.765c0-.524-.046-1.041-.136-1.552-.09-.51-.253-.965-.489-1.365-.235-.4-.568-.724-.998-.972-.43-.248-.985-.373-1.665-.373-.957 0-1.817.194-2.58.58-.763.386-1.345.924-1.747 1.613V8.323h-2.518v10.84h2.788zm11.174 4.768c.94 0 1.727-.243 2.363-.729.635-.485 1.084-1.11 1.347-1.873l4.56-13.073h-2.612l-2.611 8.493-2.943-8.493h-2.86l4.29 10.908c-.138.458-.27.84-.394 1.145-.124.305-.249.544-.373.718-.125.173-.263.295-.415.364-.152.07-.317.104-.497.104-.152 0-.339-.017-.56-.052-.22-.034-.449-.086-.684-.156v2.415c.249.083.487.142.715.177.228.035.453.052.674.052zM25.334 16.242c.576 0 1.043.467 1.043 1.043v.477c0 .576-.467 1.043-1.043 1.043H13.72l-5.295 3.616c-.578.395-1.15.608-1.637.616h-.03c-.95 0-1.539-.762-1.539-2.037v-2.195h8.5l3.754-2.563h7.862zM6.76.15c.493 0 1.086.213 1.674.615L13.903 4.5h-3.708c-.57 0-1.032.456-1.043 1.023v.497c0 .576.467 1.043 1.043 1.043h7.46L13.903 4.5h11.431c.576 0 1.043.467 1.043 1.043v.477c0 .576-.467 1.043-1.043 1.043h-7.68l3.52 2.404c.811.554 1.259 1.297 1.27 2.095v.03c0 .81-.454 1.564-1.274 2.125l-3.698 2.524H5.218v2.563H1.136c-.576 0-1.043-.467-1.043-1.043v-.477c0-.576.467-1.043 1.043-1.043h4.082v-3.337h11.057c.57 0 1.032-.457 1.043-1.024v-.496c0-.576-.467-1.043-1.043-1.043H5.218v2.563H1.136c-.576 0-1.043-.467-1.043-1.043v-.477c0-.576.467-1.043 1.043-1.043h4.082V2.19c0-1.265.578-2.025 1.514-2.04h.028z" transform="translate(25 16)"/>
        </g>
    </g>
</svg>
